static/logos/blockWallet-wordmark-color.svg

<svg width="150" height="21" viewBox="0 0 150 21" fill="none" xmlns="http://www.w3.org/2000/svg">
<g clip-path="url(#clip0_1_3367)">
<path fill-rule="evenodd" clip-rule="evenodd" d="M10.5421 21C16.364 21 21.0842 16.2986 21.0842 10.5C21.0842 4.70138 16.3649 0 10.5421 0C4.7193 0 0 4.70138 0 10.5C0 16.2986 4.7193 21 10.5421 21ZM16.3982 4.66638H4.68509V16.3336H16.3982V4.66638Z" fill="black"/>
<path fill-rule="evenodd" clip-rule="evenodd" d="M10.5421 21C16.364 21 21.0842 16.2986 21.0842 10.5C21.0842 4.70138 16.3649 0 10.5421 0C4.7193 0 0 4.70138 0 10.5C0 16.2986 4.7193 21 10.5421 21ZM16.3982 4.66638H4.68509V16.3336H16.3982V4.66638Z" fill="black"/>
<path d="M35.9316 2.13131C37.543 2.13131 38.7973 2.53381 39.6947 3.33706C40.607 4.12543 41.0631 5.18681 41.0631 6.52206C41.0631 7.26581 40.8877 7.90981 40.5386 8.45581C40.1886 8.98608 39.6789 9.40345 39.0105 9.70708V9.79808C39.8316 10.1166 40.4701 10.5943 40.9263 11.2313C41.3824 11.8683 41.6105 12.6576 41.6105 13.5973C41.6105 15.0831 41.1386 16.2512 40.1965 17.1008C39.2684 17.9496 37.9535 18.3748 36.2508 18.3748H28.0859V2.13131H35.9316ZM35.293 8.84258C36.0526 8.84258 36.6307 8.66756 37.0263 8.31931C37.4368 7.97018 37.6421 7.47056 37.6421 6.81781C37.6421 6.16506 37.4368 5.66456 37.0263 5.31631C36.6307 4.95231 36.0526 4.77031 35.293 4.77031H31.507V8.84258H35.293ZM35.5666 15.6676C36.4026 15.6676 37.0333 15.4777 37.4596 15.0988C37.9 14.7051 38.121 14.1582 38.121 13.4608C38.121 12.7626 37.9 12.2245 37.4596 11.8456C37.0333 11.4518 36.4026 11.2541 35.5666 11.2541H31.507V15.6676H35.5666ZM46.1333 1.90381V18.3748H42.9403V1.90381H46.1333ZM53.6123 6.04431C54.8587 6.04431 55.9456 6.30156 56.8737 6.81781C57.7923 7.32441 58.5387 8.09272 59.0175 9.02458C59.5193 9.98008 59.7702 11.0948 59.7702 12.3688C59.7702 13.6428 59.5193 14.7576 59.0175 15.7131C58.5335 16.6353 57.7879 17.3949 56.8737 17.8971C55.9456 18.3976 54.8587 18.6478 53.6123 18.6478C52.35 18.6478 51.2473 18.3976 50.3052 17.8971C49.3911 17.3949 48.6454 16.6353 48.1614 15.7131C47.6745 14.7576 47.4316 13.6428 47.4316 12.3688C47.4316 11.0791 47.6745 9.96433 48.1614 9.02458C48.6401 8.09268 49.3865 7.32437 50.3052 6.81781C51.2473 6.30156 52.35 6.04431 53.6123 6.04431ZM53.6123 16.2591C54.5087 16.2591 55.2158 15.9248 55.7333 15.2581C56.2508 14.5905 56.5087 13.6271 56.5087 12.3688C56.5087 11.0948 56.25 10.1236 55.7333 9.45683C55.2158 8.77433 54.5087 8.43306 53.6123 8.43306C52.7 8.43306 51.9772 8.77433 51.4456 9.45683C50.928 10.1236 50.6701 11.0948 50.6701 12.3688C50.6701 13.6271 50.928 14.5913 51.4456 15.2581C51.9772 15.9248 52.7 16.2591 53.6123 16.2591ZM67.2324 16.2818C68.6008 16.2818 69.4833 15.5005 69.878 13.9386L73.0938 14.3026C72.7903 15.5013 72.1666 16.5251 71.2237 17.3738C70.2816 18.2226 68.9508 18.6478 67.2324 18.6478C66.0008 18.6478 64.9289 18.3976 64.0166 17.8971C63.1155 17.3929 62.3851 16.6326 61.9184 15.7131C61.4324 14.7576 61.1886 13.6428 61.1886 12.3688C61.1886 11.0948 61.4324 9.98008 61.9184 9.02458C62.3798 8.09549 63.1109 7.32653 64.0166 6.81781C64.9289 6.30156 66.0008 6.04431 67.2324 6.04431C68.9052 6.04431 70.1973 6.43806 71.1096 7.22731C72.0219 8.01568 72.6228 8.88808 72.9114 9.84358L69.8096 10.5488C69.3693 9.13833 68.5096 8.43306 67.2324 8.43306C66.3658 8.43306 65.6816 8.77433 65.1798 9.45683C64.678 10.1236 64.4272 11.0948 64.4272 12.3688C64.4272 13.6271 64.678 14.5983 65.1798 15.2808C65.6816 15.9476 66.3658 16.2818 67.2324 16.2818ZM77.3517 18.3748H74.1587V1.90381H77.3517V11.0038L81.7079 6.34006H85.3798L80.864 10.9583L85.9044 18.3748H82.1877L78.6982 13.0741L77.3526 14.4618V18.3748H77.3517ZM96.4167 6.59031H96.3255L93.8851 18.3748H89.7343L85.8114 2.13131H89.3237L91.8553 14.3026H91.9466L94.4325 2.13131H98.2641L100.75 14.3026H100.841L103.396 2.13131H106.931L103.008 18.3748H98.9027L96.4167 6.59031ZM115.048 18.3748C114.942 18.2532 114.859 18.0485 114.797 17.7606C114.733 17.408 114.702 17.0498 114.706 16.6913C114.372 17.3126 113.833 17.7982 113.087 18.1473C112.342 18.4842 111.533 18.655 110.715 18.6478C110.022 18.6525 109.337 18.5049 108.708 18.2156C108.116 17.9404 107.605 17.5172 107.225 16.9871C106.861 16.4411 106.678 15.8041 106.678 15.0761C106.678 13.8476 107.097 12.9376 107.933 12.3461C108.769 11.7546 110.024 11.36 111.696 11.1631C112.852 11.0108 113.634 10.8446 114.045 10.6626C114.471 10.4648 114.683 10.177 114.683 9.79808C114.683 9.34308 114.509 8.98608 114.159 8.72881C113.81 8.45581 113.285 8.31931 112.585 8.31931C112.008 8.31931 111.49 8.47068 111.034 8.77433C110.594 9.07708 110.282 9.52508 110.099 10.1166L107.157 9.66158C107.416 8.53893 108.04 7.65956 109.027 7.02256C110.016 6.36981 111.225 6.04431 112.654 6.04431C114.403 6.04431 115.71 6.39256 116.576 7.09081C117.443 7.78818 117.876 8.73581 117.876 9.93458V15.9633C117.876 16.6607 117.892 17.184 117.922 17.5331C117.968 17.8665 118.059 18.1473 118.196 18.3748H115.048ZM114.683 12.4371C114.501 12.5885 114.19 12.7171 113.748 12.8238C113.323 12.9148 112.761 13.0058 112.061 13.0968C111.422 13.2027 110.905 13.4075 110.51 13.7111C110.13 13.9998 109.94 14.4085 109.94 14.9396C109.94 15.4243 110.092 15.8041 110.396 16.0771C110.715 16.3343 111.148 16.4638 111.696 16.4638C112.168 16.4638 112.631 16.365 113.087 16.1681C113.543 15.9703 113.924 15.6676 114.227 15.2581C114.532 14.8328 114.683 14.3096 114.683 13.6883V12.4371ZM122.933 1.90381V18.3748H119.74V1.90381H122.933ZM128.074 1.90381V18.3748H124.881V1.90381H128.074ZM141.562 14.8031C141.274 15.8496 140.65 16.7517 139.692 17.5103C138.734 18.2681 137.389 18.6478 135.655 18.6478C134.424 18.6478 133.352 18.3976 132.44 17.8971C131.539 17.3928 130.808 16.6325 130.341 15.7131C129.855 14.7576 129.611 13.6428 129.611 12.3688C129.611 11.0791 129.847 9.96433 130.318 9.02458C130.805 8.06906 131.497 7.33318 132.394 6.81781C133.306 6.30156 134.386 6.04431 135.633 6.04431C136.834 6.04431 137.89 6.28668 138.803 6.77231C139.715 7.25706 140.422 7.97806 140.924 8.93358C141.425 9.87333 141.676 11.0038 141.676 12.3233C141.676 12.6261 141.669 12.8615 141.654 13.0286H132.85C132.881 14.0445 133.147 14.8635 133.648 15.4856C134.15 16.092 134.819 16.3956 135.655 16.3956C136.447 16.3956 137.047 16.2136 137.457 15.8496C137.868 15.4698 138.149 15.0306 138.301 14.5301L141.562 14.8031ZM135.633 8.27381C134.827 8.27381 134.181 8.53106 133.694 9.04733C133.223 9.56358 132.957 10.2076 132.896 10.9811H138.392C138.332 10.1918 138.058 9.54783 137.571 9.04733C137.1 8.53106 136.454 8.27381 135.633 8.27381ZM149.912 15.8951V18.3748C149.487 18.4046 148.787 18.4203 147.814 18.4203C146.947 18.4203 146.263 18.3442 145.761 18.1928C145.26 18.0266 144.887 17.7378 144.644 17.3283C144.401 16.904 144.279 16.2967 144.279 15.5083V8.47856H142.363V6.34006H144.279V2.97306H147.472V6.34006H150.004V8.47856H147.472V14.7121C147.472 15.2126 147.571 15.5381 147.768 15.6903C147.982 15.8268 148.354 15.8951 148.886 15.8951H149.912Z" fill="black"/>
</g>
<defs>
<clipPath id="clip0_1_3367">
<rect width="150" height="21" fill="white"/>
</clipPath>
</defs>
</svg>

<svg xmlns="http://www.w3.org/2000/svg" width="457.143" height="64" fill="none" viewBox="0 0 150 21"><g fill="#000" clip-path="url(#a)"><path fill-rule="evenodd" d="M10.542 21c5.822 0 10.542-4.701 10.542-10.5S16.364 0 10.542 0C4.72 0 0 4.701 0 10.5S4.72 21 10.542 21Zm5.856-16.334H4.685v11.668h11.713V4.666Z" clip-rule="evenodd"/><path fill-rule="evenodd" d="M10.542 21c5.822 0 10.542-4.701 10.542-10.5S16.364 0 10.542 0C4.72 0 0 4.701 0 10.5S4.72 21 10.542 21Zm5.856-16.334H4.685v11.668h11.713V4.666Z" clip-rule="evenodd"/><path d="M35.932 2.131c1.611 0 2.865.403 3.763 1.206.912.788 1.368 1.85 1.368 3.185 0 .744-.175 1.388-.524 1.934-.35.53-.86.947-1.529 1.251v.091c.822.319 1.46.796 1.916 1.433.456.637.684 1.427.684 2.366 0 1.486-.471 2.654-1.413 3.504-.929.849-2.244 1.274-3.946 1.274h-8.165V2.13h7.846Zm-.639 6.712c.76 0 1.338-.175 1.733-.524.41-.349.616-.848.616-1.501 0-.653-.205-1.153-.616-1.502-.395-.364-.973-.546-1.733-.546h-3.786v4.073h3.786Zm.274 6.825c.836 0 1.466-.19 1.893-.57.44-.393.661-.94.661-1.637 0-.698-.221-1.236-.661-1.615-.427-.394-1.057-.592-1.893-.592h-4.06v4.414h4.06ZM46.133 1.904v16.47H42.94V1.905h3.193Zm7.48 4.14c1.246 0 2.333.258 3.26.774a5.272 5.272 0 0 1 2.145 2.207c.501.955.752 2.07.752 3.344s-.25 2.389-.753 3.344a5.305 5.305 0 0 1-2.143 2.184c-.928.5-2.015.75-3.262.75-1.262 0-2.365-.25-3.307-.75a5.306 5.306 0 0 1-2.144-2.184c-.486-.955-.73-2.07-.73-3.344 0-1.29.244-2.405.73-3.344a5.27 5.27 0 0 1 2.144-2.207c.942-.516 2.045-.774 3.307-.774Zm0 10.215c.896 0 1.603-.334 2.12-1 .518-.668.776-1.632.776-2.89 0-1.274-.259-2.245-.776-2.912-.517-.683-1.224-1.024-2.12-1.024-.913 0-1.636.341-2.167 1.024-.518.667-.776 1.638-.776 2.912 0 1.258.258 2.222.776 2.89.531.666 1.254 1 2.166 1Zm13.62.023c1.368 0 2.25-.781 2.645-2.343l3.216.364c-.304 1.198-.927 2.222-1.87 3.07-.942.85-2.273 1.275-3.992 1.275-1.231 0-2.303-.25-3.215-.75a5.2 5.2 0 0 1-2.099-2.185c-.486-.955-.73-2.07-.73-3.344s.244-2.389.73-3.344a5.168 5.168 0 0 1 2.099-2.207c.912-.516 1.984-.774 3.215-.774 1.673 0 2.965.394 3.878 1.183.912.789 1.513 1.661 1.801 2.617l-3.101.705c-.44-1.41-1.3-2.116-2.578-2.116-.866 0-1.55.341-2.052 1.024-.502.667-.753 1.638-.753 2.912 0 1.258.251 2.23.753 2.912.502.667 1.186 1 2.052 1Zm10.119 2.093h-3.193V1.904h3.193v9.1l4.356-4.664h3.672l-4.516 4.618 5.04 7.417h-3.716l-3.49-5.3-1.345 1.387v3.913h-.001ZM96.417 6.59h-.091l-2.44 11.785h-4.152L85.811 2.13h3.513l2.531 12.172h.092L94.433 2.13h3.831l2.486 12.172h.091l2.555-12.172h3.535l-3.923 16.244h-4.105L96.417 6.59Zm18.631 11.785c-.106-.122-.189-.326-.251-.614a5.637 5.637 0 0 1-.091-1.07c-.334.622-.873 1.107-1.619 1.456a5.635 5.635 0 0 1-2.372.5 4.726 4.726 0 0 1-2.007-.431 3.79 3.79 0 0 1-1.483-1.229c-.364-.546-.547-1.183-.547-1.91 0-1.23.419-2.14 1.255-2.73.836-.592 2.091-.987 3.763-1.184 1.156-.152 1.938-.318 2.349-.5.426-.198.638-.486.638-.865 0-.455-.174-.812-.524-1.07-.349-.272-.874-.409-1.574-.409-.577 0-1.095.152-1.551.455-.44.303-.752.751-.935 1.343l-2.942-.455c.259-1.123.883-2.002 1.87-2.64.989-.652 2.198-.978 3.627-.978 1.749 0 3.056.349 3.922 1.047.867.697 1.3 1.645 1.3 2.844v6.028c0 .698.016 1.221.046 1.57.046.333.137.614.274.842h-3.148Zm-.365-5.938c-.182.152-.493.28-.935.387-.425.09-.987.182-1.687.273-.639.106-1.156.31-1.551.614-.38.289-.57.697-.57 1.229 0 .484.152.864.456 1.137.319.257.752.387 1.3.387.472 0 .935-.099 1.391-.296.456-.198.837-.5 1.14-.91.305-.425.456-.948.456-1.57v-1.25Zm8.25-10.533v16.47h-3.193V1.905h3.193Zm5.141 0v16.47h-3.193V1.905h3.193Zm13.488 12.9c-.288 1.046-.912 1.948-1.87 2.706-.958.758-2.303 1.138-4.037 1.138-1.231 0-2.303-.25-3.215-.75a5.206 5.206 0 0 1-2.099-2.185c-.486-.955-.73-2.07-.73-3.344 0-1.29.236-2.405.707-3.344.487-.956 1.179-1.692 2.076-2.207.912-.516 1.992-.774 3.239-.774 1.201 0 2.257.243 3.17.728.912.485 1.619 1.206 2.121 2.162.501.94.752 2.07.752 3.39 0 .302-.007.537-.022.705h-8.804c.031 1.015.297 1.835.798 2.457.502.606 1.171.91 2.007.91.792 0 1.392-.182 1.802-.546a2.94 2.94 0 0 0 .844-1.32l3.261.273Zm-5.929-6.53c-.806 0-1.452.257-1.939.773-.471.517-.737 1.16-.798 1.934h5.496c-.06-.79-.334-1.433-.821-1.934-.471-.516-1.117-.773-1.938-.773Zm14.279 7.621v2.48c-.425.03-1.125.045-2.098.045-.867 0-1.551-.076-2.053-.227-.501-.166-.874-.455-1.117-.865-.243-.424-.365-1.031-.365-1.82v-7.03h-1.916V6.34h1.916V2.973h3.193V6.34h2.532V8.48h-2.532v6.233c0 .5.099.826.296.978.214.137.586.205 1.118.205h1.026Z"/></g><defs><clipPath id="a"><path fill="#fff" d="M0 0h150v21H0z"/></clipPath></defs></svg>
